svg/pantograph_bottom_up.svg

<svg width="24" height="24" viewBox="0 0 24 24" fill="none" xmlns="http://www.w3.org/2000/svg">
<path d="M22 3H2V5H22V3Z" />
<path d="M15.4649 10H12.6179L14.6606 14.0854C14.9534 14.671 14.9411 15.3628 14.6276 15.9376L12.9572 19H22V21H2V19H10.679L12.8718 14.9799L10.3819 10H8.53529L7.83216 11.0547C7.5258 11.5142 6.90493 11.6384 6.44541 11.3321C5.98588 11.0257 5.8617 10.4048 6.16806 9.94532L7.01962 8.66797C7.29782 8.25067 7.76617 8.00002 8.2677 8.00002H15.7325C16.234 8.00002 16.7024 8.25067 16.9806 8.66797L17.8322 9.94532C18.1385 10.4048 18.0143 11.0257 17.5548 11.3321C17.0953 11.6384 16.4744 11.5142 16.1681 11.0547L15.4649 10Z" />
</svg>

<svg width="24" height="24" viewBox="0 0 24 24" fill="none" xmlns="http://www.w3.org/2000/svg"><path d="M22 3H2v2h20V3zM15.465 10h-2.847l2.043 4.085a2 2 0 0 1-.033 1.853L12.958 19H22v2H2v-2h8.679l2.193-4.02-2.49-4.98H8.535l-.703 1.055a1 1 0 0 1-1.664-1.11l.852-1.277A1.5 1.5 0 0 1 8.268 8h7.464c.502 0 .97.25 1.249.668l.851 1.277a1 1 0 0 1-1.664 1.11L15.465 10z"/></svg>
